dist/img/car_icon.svg

<svg width="68" height="68" viewBox="0 0 68 68" fill="none" xmlns="http://www.w3.org/2000/svg">
<circle cx="34" cy="34" r="34" fill="#0D1B2B"/>
<path d="M23.2843 40.2092H20.9277" stroke="white" stroke-width="1.5"/>
<path d="M20.9278 33.9252L17.7856 33.1397V29.9976" stroke="white" stroke-width="1.5"/>
<path d="M31.925 40.995V37.0674H24.8552V40.995" stroke="white" stroke-width="1.5"/>
<path d="M33.4961 40.2092H35.8527" stroke="white" stroke-width="1.5"/>
<path d="M35.8528 33.9252L38.9949 33.1397V29.9976" stroke="white" stroke-width="1.5"/>
<path d="M19.3567 43.3516V45.7082C19.3567 46.1425 19.7086 46.4937 20.1422 46.4937H22.4988C22.9324 46.4937 23.2843 46.1425 23.2843 45.7082V43.3516" stroke="white" stroke-width="1.5"/>
<path d="M33.4961 43.3516V45.7082C33.4961 46.1425 33.848 46.4937 34.2816 46.4937H36.6382C37.0718 46.4937 37.4237 46.1425 37.4237 45.7082V43.3516" stroke="white" stroke-width="1.5"/>
<path d="M48.4211 43.3516V45.7082C48.4211 46.1425 48.7731 46.4937 49.2067 46.4937H51.5633C51.9969 46.4937 52.3488 46.1425 52.3488 45.7082V43.3516" stroke="white" stroke-width="1.5"/>
<mask id="mask0" mask-type="alpha" maskUnits="userSpaceOnUse" x="17" y="19" width="38" height="29">
<path fill-rule="evenodd" clip-rule="evenodd" d="M17 47.2791H54.7054V19H17V47.2791Z" fill="white"/>
</mask>
<g mask="url(#mask0)">
<path fill-rule="evenodd" clip-rule="evenodd" d="M23.2842 33.9252H33.4961V29.9976H23.2842V33.9252Z" stroke="white" stroke-width="1.5"/>
<path d="M35.8528 22.9277V34.7107L36.6384 35.4962C37.0311 35.889 37.4247 36.3556 37.4239 37.0673C37.4239 37.6329 37.4262 39.3752 37.4239 40.2094H38.9949V43.3515H17.7856V40.2094H19.3567C19.3543 39.3752 19.3567 37.6329 19.3567 37.0673C19.3559 36.3556 19.7495 35.889 20.1422 35.4962L20.9278 34.7107V22.9277" stroke="white" stroke-width="1.5"/>
<path d="M35.8528 27.6409L34.8874 26.7438C34.31 26.0761 33.5928 26.0698 32.7107 26.0698H24.0699C23.1877 26.0698 22.4705 26.0761 21.8932 26.7438L20.9277 27.6409" stroke="white" stroke-width="1.5"/>
<path d="M17.7856 28.4265V19.7856H38.9949V28.4265" stroke="white" stroke-width="1.5"/>
<path d="M38.9949 19.7856H39.7804L53.9199 29.212V43.3515H40.5659" stroke="white" stroke-width="1.5"/>
</g>
</svg>

<svg width="68" height="68" fill="none" xmlns="http://www.w3.org/2000/svg"><circle cx="34" cy="34" r="34" fill="#0D1B2B"/><path d="M23.284 40.21h-2.356m0-6.285l-3.142-.785v-3.142m14.139 10.997v-3.928h-7.07v3.928m8.641-.785h2.357m0-6.285l3.142-.785v-3.142M19.357 43.352v2.356c0 .434.352.786.785.786H22.5a.785.785 0 00.785-.786v-2.356m10.211 0v2.356c0 .434.352.786.786.786h2.356a.785.785 0 00.786-.786v-2.356m10.997 0v2.356c0 .434.352.786.786.786h2.356a.785.785 0 00.786-.786v-2.356" stroke="#fff" stroke-width="1.5"/><mask id="a" maskUnits="userSpaceOnUse" x="17" y="19" width="38" height="29"><path fill-rule="evenodd" clip-rule="evenodd" d="M17 47.28h37.705V19H17v28.28z" fill="#fff"/></mask><g mask="url(#a)" stroke="#fff" stroke-width="1.5"><path clip-rule="evenodd" d="M23.284 33.925h10.212v-3.927H23.284v3.927z"/><path d="M35.853 22.928V34.71l.785.785c.393.393.787.86.786 1.571 0 .566.002 2.308 0 3.142h1.57v3.142H17.787v-3.14h1.57c-.002-.834 0-2.576 0-3.142 0-.711.393-1.178.786-1.57l.786-.786V22.928"/><path d="M35.853 27.64l-.966-.896c-.577-.668-1.294-.674-2.176-.674H24.07c-.882 0-1.6.006-2.177.674l-.965.897"/><path d="M17.786 28.427v-8.641h21.209v8.64"/><path d="M38.995 19.786h.785l14.14 9.426v14.14H40.566"/></g></svg>
